X: 11481
T: Echoing Strings, The
R: hornpipe
M: 4/4
K: Dmajor
de|:fAdf Adfd|(3efe ce Acec|d2dB GBdB|AFAd fede|
fAdf Adfd|(3efe ce Acec|d2dB GBdB|1 Acef d2 de:|2 Acec d2 fg||
|:a2af Adfd|(3BBB GB AFAd|B2 ed cdef|Beed e=f^fg|
a2af Adfd|(3BBB GB ABde|fAdf eAce|1 (3ddd ec d2 fg:|2 (3ddd ec dBAF||
|:D2fa fded|B2(3BBB ABAF|D2fa fded|(3BBB ed efAF|
D2fa fded|B2(3BBB ABde|fAdf eAce|1 (3ddd ec d2 AF:|2 (3ddd ec d2 de||
|:f2 (3dBA FAdf|e2 (3cBA EAec|d2dB GBdB|AFAd fede|
f2 (3dBA FAdf|e2 (3cBA EAec|d2dB GBdB|1 Acec d2 de:|2 Acef d4||

